icon-themes/sifr_svg/cmd/lc_arrowshapes.up-right-arrow-callout.svg

<svg viewBox="0 0 24 24" xmlns="http://www.w3.org/2000/svg"><g fill="#555753"><path d="m6.875 0-5.875 5.2226562v1.7773438h4v2h-4v14h14v-4h2v4h1.777344l5.222656-5.875v-2.25l-5.222656-5.875h-1.777344v4h-2v-4h-4v-2h4v-1.7773438l-5.875-5.2226562zm1.125 2 3.138672 3h-2.138672v6h4v4h6v-2.138672l3 3.138672-3 3.138672v-2.138672h-6v4h-10v-10h4v-6h-2.1386719z"/><path d="m8 2-3.1386719 3h2.1386719v6h-4v10h10v-4h6v2.138672l3-3.138672-3-3.138672v2.138672h-6v-4h-4v-6h2.138672z" opacity=".35"/></g></svg>

<svg viewBox="0 0 24 24" xmlns="http://www.w3.org/2000/svg">
  <path
     style="fill:#555753"
     d="M 6.875,0 1,5.2226562 V 7 H 5 V 9 H 1 v 14 h 14 v -4 h 2 v 4 h 1.777344 L 24,17.125 v -2.25 L 18.777344,9 H 17 v 4 H 15 V 9 H 11 V 7 h 4 V 5.2226562 L 9.125,0 Z M 8,2 11.138672,5 H 9 v 6 h 4 v 4 h 6 V 12.861328 L 22,16 19,19.138672 V 17 h -6 v 4 H 3 V 11 H 7 V 5 H 4.8613281 Z"
     />
  <path
     style="opacity:0.35;fill:#555753"
     d="M 8,2 4.8613281,5 H 7 v 6 H 3 v 10 h 10 v -4 h 6 v 2.138672 L 22,16 19,12.861328 V 15 H 13 V 11 H 9 V 5 h 2.138672 z"
     />
</svg>
